X:1
T:Come de voi piu bella
T:Girolamo Scotto
T:Source : Secondo Libro delle Muse a tre voci---Venetia---G.Scotto---1562. Editor : André Vierendeels (18/05/16).
T:Notes : Original clefs : G2, C1, C3 
T:Come de voi piu bella
T:©
T:©
T:©
T:©
T:©
C:Girolamo Scotto
Z:©
%%score [ 1 2 3 ]
L:1/8
Q:1/4=100
M:4/4
K:F
V:1 treble nm="Soprano 1" snm="S 1"
V:2 treble nm="Soprano 2" snm="S 2"
V:3 treble-8 nm="Tenor" snm="T"
V:1
 z4 A4 | F2 F2 B2 A2 | G4 A4 | z2 A2 c2 c2 | B2 G2 B4 | A4 z2 A2 | d2 d2 c2 A2 | B4 A4 | %8
w: Co-|me de voi piu|bel- la|non è ne|fu ne si-|a, non|é ne fu ne|fi- a|
 z2 c2 d2 d2 | e2 f3 e d2 | c2 c2 d3 c | B2 A4 G2 | A4 z4 | z2 A2 B2 B2 | A2 A2 G4 | A2 c2 f2 f2 | %16
w: don- na mor-|tal gia- * ma-|i, don- na mor-|tal gia- ma-|i,|co- si la|fiam- ma mi-|a, co- si la|
 e2 f2 d4 | e4 z2 c2 | f3 e d2 c2 | d4 c2 c2 | d3 c B2 A2 | G8 | A8 | z8 | z2 f2 e2 c2 | d2 e2 f4 | %26
w: fiam- ma mi-|a, e|sen- za par an-|ch'el- la, e|sen- za par an-|ch'el-|la,||ma piu se-|rian' as- sa-|
 c4 d4 | c2 A2 B2 c2 | d4 c2 e2 | e2 e2 f2 f2 | g8 | c8 | z2 f2 e2 e2 | f2 d2 c3 B | A2 B2 G2 c2- | %35
w: i, ma|piu se- rian' as-|sa- i, que-|ste due co- s'es-|tre-|me,|s'u- ni- te|fus- ser ben d'ac-|cor- d'in- fie- *|
 c2 A2 G2 c2- | cB B2 c4 | A4 d3 c | B2 A2 G4 | F4 z4 | z2 f2 e2 f2 | d2 d2 c3 c | B2 A4 G2 | %43
w: * me, s'u- ni-|* * te fus-|ser ben d'ac-|cor- d'in- fie-|me,|s'u- ni- te|fus- ser ben d'ac-|cor- d'in- sie-|
 A4 z2 d2 | c2 c2 d2 e2 | fedc BA d2- | d2 c2 d2 f2- | fe d3 c B2 | A8 |] %49
w: me, s'u-|ni- te fus- ser|ben _ _ _ _ _ s'ac-|* cor- d'in- sie-||me.|
V:2
 E4 C2 F2 | D3 C DE F2- | F2 E2 F2 C2 | F2 F2 E2 C2 | G4 G2 D2 | F2 F2 E2 F2 | D4 E2 A2- | %7
w: Co- me de|voi piu _ _ _|_ bel- la, non|è ne fu ne|si- a, non|è ne fu ne|fi- a, ne|
 A2 G2 F4 | E2 A2 F2 G2 | E2 A4 G2 | A2 A2 A3 G | F2 E2 D4 | E2 z E F2 E2 | D2 C2 D2 G2- | %14
w: _ _ fi-|a, don- na mor-|tal gia- ma-|i, don- na mor-|tal gia- ma-|i, co- si la|fiam- * ma mi-|
 GF F4 E2 | F2 A2 A2 d2 | c2 A2 B c2 B | c2 G2 A3 G | AFGA B2 A2 | B4 A3 G | FE F2 GC F2- | %21
w: |a, co- si la|fiam- ma mi- * *|a, e sen- za|par _ _ _ _ an-|ch'el- la, e|sen- * za par _ an-|
 F2 ED E4 | F4 z4 | z2 c2 B2 G2 | AGAB c4 | B2 G2 A2 B2 | A3 G F2 B2 | AGFE D2 A2 | FEFG A2 G2 | %29
w: * * * ch'el-|la,|ma piu se-|rian' _ _ _ _|as- sa- i, ma|piu se- rian' as-|sa- * * * i, as-|sa- * * * i, que-|
 c2 c2 d2 A2 | c4 B3 G | A2 A2 A2 G2 | A2 F2 G4 | DEFG A2 G2- | GF F4 E2 | F2 c3 B AG | %36
w: ste due co- s'es-|tre- me, s'u-|ni- te fus- ser|ben d'ac- cor-|d'in- * * * * fie-||me, s'u- * * *|
 FEFG A2 G2 | F3 E F2 G2- | G2 C2 D2 E2 | FGAB c2 A2 | B c2 B c2 d2- | dc B2 A4 | B2 c2 d4 | %43
w: ni- * * * te fus-|ser ben d'ac- cor-|* d'in- sie- *|* * * * me, s'u-|ni- * * te fus-|* * * ser|ben d'a- cor-|
 c2 F2 F2 G2 | A2 A2 G4 | F2 B4 A2 | G4 A2 d2- | dc B3 A G2 | ^F8 |] %49
w: d'in- sie- me, s'u-|ni- te fus-|ser ben s'ac-|cor- d'in- sie-||me.|
V:3
 z2 A4 F2 | B3 A G2 F2 | c4 F4- | F4 z4 | G8 | d2 d2 c2 d2 | B4 A4 | z2 G2 d2 d2 | c2 A2 B4 | %9
w: Co- me|de _ voi piu|bel- la,|_|non|è ne fu ne|fi- a,|don- na mor-|tal gia- ma-|
 A2 F2 B4 | A4 d4- | d2 c2 B4 | A4 z2 A2 | B2 A2 G4 | A3 B c4 | F2 f2 d2 B2 | c2 d2 g4 | %17
w: i, don- na|mor- tal|_ gia- ma-|i, co-|ci la fiam-|ma _ mi-|a, co- si la|fiam- ma mi-|
 c2 c2 f3 e | d3 c B2 f2 | Bcde f2 F2 | B3 A G2 F2 | c8 | F4 z2 f2 | e2 c2 d2 e2 | f2 d2 a4 | %25
w: a, e sen- za|par _ _ an-|ch'el- * * * la, e|sen- za par an-|ch'el-|la, ma|piu se- rian' as-|sa- i, ma|
 g2 c2 d2 B2 | f3 e dc B2 | f2 F2 G2 F2 | Bc de f2 c2 | c2 c2 B2 d2 | c3 B/A/ G4 | F2 f2 f2 e2 | %32
w: piu se- rian' as|sa- * * * i,|ma piu se- rian'|as- * sa- * i, que-|ste due co- s'es-|tre- * * *|me, s'u- ni- te|
 f2 d2 c4 | Bcde f2 c2 | d2 B2 c4 | F2 f2 e2 f2 | d4 c4 | d3 c BA G2- | G2 A2 B2 c2 | d2 f2 e2 f2 | %40
w: fus- ser ben|d'ac- * * * cor- d'in-|sie- * *|me s'u- ni- te|fus- ser|ben d'ac- cor- * *|* d'in- sie- *|* * me, s'u-|
 d4 c2 B2- | Bcde f3 e | d2 c2 B4 | A2 d3 c B2 | A2 A2 B2 c2 | d2 g4 f2 | _e4 d3 c | B3 A G4 | %48
w: ni- te fus-|* * * * * ser|ben s'ac- cor-|d'in- sie- me, s'u-|ni- te fus- *|ser ben s'ac-|cor- d'in- *|sie- * *|
 d8 |] %49
w: me|

